!!!!SEGMENT: pl-cz--iii-106--009_dankowski-wojciech--missa-e-dona-nobis.krn
!!!cenid: 18xx:760
!!!COM: Dankowski, Wojciech
!!!COM-rismid:
!!!CDT:
!!!CNT:
!!!OPR: Missa E
!!!OTL: Dona nobis
!!!OMV: 009
!!!PDT:
!!!AGN: Sacred; Mass
!!!SMS-siglum: PL-CZ
!!!SMS-shelfmark: III-106
!!!SMS-shelfwork: 001-009 M
!!!SMS-variant:
!!!SMS-altvar:
!!!NIFC-rismid: 300000111
!!!URL-scan: http://repozytorium.nifc.pl/skany/pl-cz-nut--iii-106
!!!ONB-nifc: UWAGA: części Mszy: Kyrie, Gloria, Patrem, Et resurrexit, Sanctus, Benedictus, Osanna, Agnus Dei, Dona nobis
!!!key: D
**kern	**fba	**kern	**dynam	**kern	**dynam	**kern	**text	**kern	**text	**kern	**text	**kern	**text	**kern	**kern
*part9	*part9	*part8	*part8	*part7	*part7	*part6	*part6	*part5	*part5	*part4	*part4	*part3	*part3	*part2	*part1
*staff9	*staff9	*staff8	*	*staff7	*	*staff6	*staff6	*staff5	*staff5	*staff4	*staff4	*staff3	*staff3	*staff2	*staff1
*	*	*group3	*	*group3	*	*group2	*	*group2	*	*group2	*	*group2	*	*group1	*group1
*I"Organo	*	*I"Violino Secondo	*	*I"Violino Primo	*	*I"Baſso	*	*I"Tenore	*	*I"Alto	*	*I"Canto	*	*I"Clarino Secondo ex D:	*I"Clarino Primo ex D:
*I|org	*	*I|vl 2	*	*I|vl 1	*	*I|B	*	*I|T	*	*I|A	*	*I|S	*	*I|clno 2 ex D	*I|clno 1 ex D
*Iorgan	*	*Ivioln	*	*Ivioln	*	*Ibass	*	*Itenor	*	*Ialto	*	*Isoprn	*	*Icornt	*Icornt
*ICklav	*	*ICstr	*	*ICstr	*	*ICvox	*	*ICvox	*	*ICvox	*	*ICvox	*	*ICbras	*ICbras
*IGcont	*	*IGacmp	*	*IGacmp	*	*IGcoro	*	*IGcoro	*	*IGcoro	*	*IGcoro	*	*IGacmp	*IGacmp
*clefF4	*	*clefG2	*	*clefG2	*	*clefF4	*	*clefC4	*	*clefC3	*	*clefC1	*	*clefG2	*clefG2
*	*	*	*	*	*	*	*	*	*	*	*	*	*	*ITrd-1c-2	*ITrd-1c-2
*k[f#c#]	*	*k[f#c#]	*	*k[f#c#]	*	*k[f#c#]	*	*k[f#c#]	*	*k[f#c#]	*	*k[f#c#]	*	*k[f#c#]	*k[f#c#]
*D:	*	*D:	*	*D:	*	*D:	*	*D:	*	*D:	*	*D:	*	*D:	*D:
*M2/2	*	*M2/2	*	*M2/2	*	*M2/2	*	*M2/2	*	*M2/2	*	*M2/2	*	*M2/2	*M2/2
=1	=1	=1	=1	=1	=1	=1	=1	=1	=1	=1	=1	=1	=1	=1	=1
*2\right	*	*	*	*	*	*2\right	*	*2\right	*	*2\right	*	*2\right	*	*2\right	*2\right
!	!	!	!	!	!	!	!	!	!	!	!	!	!	!	!LO:TX:t=P:problem:oznaczenie metryczne przekreślone 2:global
!LO:TX:a:Bi:t=allo	!	!LO:TX:a:Bi:t=allo	!LO:DY:a:t=f&colon;	!LO:TX:a:Bi:t=allo&colon;	!LO:DY:a:t=f&colon;	!	!	!	!	!	!	!	!	!LO:TX:a:Bi:t=allo&colon;	!LO:TX:a:Bi:t=allo&colon;
2d\	.	2a/	f	4.ff# 4.a\	f	2d\	Do-	2d\	Do-	2a\	Do-	2ff#\	Do-	2dd\	2ff#\
.	.	.	.	16gg\LL	.	.	.	.	.	.	.	.	.	.	.
.	.	.	.	16ff#\JJ	.	.	.	.	.	.	.	.	.	.	.
2c#\	6 5	2a/	.	4ee\	.	2c#\	-na	2e\	-na	2a\	-na	2gg\	-na	2a/	2ee\
.	.	.	.	4gg\	.	.	.	.	.	.	.	.	.	.	.
=2	=2	=2	=2	=2	=2	=2	=2	=2	=2	=2	=2	=2	=2	=2	=2
2d\	.	4a/	.	4ff#\	.	2d\	no-	2d\	no-	2a\	no-	2ff#\	no-	2dd\	2ff#\
.	.	4f#/	.	4aa\	.	.	.	.	.	.	.	.	.	.	.
2G\	6	4e/	.	4gg\	.	2G\	-bis	2B\	-bis	2g\	-bis	2ee\	-bis	2ee\	2gg\
.	.	4b/	.	4ee\	.	.	.	.	.	.	.	.	.	.	.
=3	=3	=3	=3	=3	=3	=3	=3	=3	=3	=3	=3	=3	=3	=3	=3
2A\	4	4a/	.	4ff#\	.	2A\	pa-	1A	pa-	2f#\	pa-	2dd\	pa-	2dd\	2ff#\
.	.	4f#/	.	4dd\	.	.	.	.	.	.	.	.	.	.	.
2AA/	3	4g/	.	4ee\	.	2AA/	.	.	.	2e\	.	2cc#\	.	2a/	2ee\
.	.	4e/	.	4cc#\	.	.	.	.	.	.	.	.	.	.	.
=4	=4	=4	=4	=4	=4	=4	=4	=4	=4	=4	=4	=4	=4	=4	=4
4D\	.	4f#/	.	4dd\	.	4D\	-cem	4A\	-cem	4f#\	-cem	4dd\	-cem	4f#/	4dd\
4r	.	4r	.	4a/	.	4r	.	4r	.	4a\	da	4r	.	4r	4r
2r	.	2r	.	4a/	.	2r	.	2r	.	4a\	no-	2r	.	2r	2r
.	.	.	.	4a/	.	.	.	.	.	4a\	-bis	.	.	.	.
=5	=5	=5	=5	=5	=5	=5	=5	=5	=5	=5	=5	=5	=5	=5	=5
4r	.	4r	.	1a	.	4r	.	4r	.	1a	pa-	4r	.	4r	4r
4D\	5_ 3	4f#/	.	.	.	4D\	da	4d\	da	.	.	4ff#\	da	4dd\	4ff#\
4C#\	_ 3	4e/	.	.	.	(4C#\	pa-	2c#\	pa-	.	.	(4ee\	pa-	2a/	2ee\
4E\	_ 3	4g/	.	.	.	4E\)	.	.	.	.	.	4gg\)	.	.	.
!	!	!	!	!	!	!LO:LB:g=original	!	!LO:LB:g=original	!	!LO:LB:g=original	!	!LO:LB:g=original	!	!	!
=6	=6	=6	=6	=6	=6	=6	=6	=6	=6	=6	=6	=6	=6	=6	=6
4D\	_ 3	4f#/	.	4a/	.	4D\	-cem	4d\	-cem	4a\	-cem	4ff#\	-cem	4f#/	4dd\
4r	x	4r	.	8cc#\L	.	4r	.	4r	.	8cc#\L	da	4r	.	4r	4r
.	.	.	.	8dd\J	.	.	.	.	.	8dd\J	.	.	.	.	.
!	!	!	!	!LO:LB:g=original	!	!	!	!	!	!	!	!	!	!	!
2r	.	2r	.	4a/	.	2r	.	2r	.	4a\	no-	2r	.	2r	2r
.	.	.	.	4a/	.	.	.	.	.	4a\	-bis	.	.	.	.
!LO:LB:g=original	!	!LO:LB:g=original	!	!	!	!	!	!	!	!	!	!	!	!LO:LB:g=original	!LO:LB:g=original
=7	=7	=7	=7	=7	=7	=7	=7	=7	=7	=7	=7	=7	=7	=7	=7
4r	.	4r	.	1a	.	4r	.	4r	.	1a	pa-	4r	.	4r	4r
4D\	5_ 3	4f#/	.	.	.	4D\	da	4d\	da	.	.	4ff#\	da	4dd\	4ff#\
4C#\	_ 3	4e/	.	.	.	(4C#\	pa-	2c#\	pa-	.	.	4ee\	pa-	2a/	2ee\
4E\	_ 3	4g/	.	.	.	4E\)	.	.	.	.	.	4gg\	.	.	.
=8	=8	=8	=8	=8	=8	=8	=8	=8	=8	=8	=8	=8	=8	=8	=8
4D\	_ 3	4f#/	.	4a/	.	4D\	-cem	4d\	-cem	4a\	-cem	4ff#\	-cem	4f#/	4dd\
*	*	*	*	*	*	*	*	*	*	*	*ij	*	*	*	*
4r	x	4r	.	8cc#\L	.	4r	.	4r	.	8cc#\L	da	4r	.	4r	4r
.	.	.	.	8dd\J	.	.	.	.	.	8dd\J	.	.	.	.	.
2r	.	2r	.	4a/	.	2r	.	2r	.	4a\	no-	2r	.	2r	2r
.	.	.	.	4a/	.	.	.	.	.	4a\	-bis	.	.	.	.
=9	=9	=9	=9	=9	=9	=9	=9	=9	=9	=9	=9	=9	=9	=9	=9
4r	.	4r	.	1a	.	4r	.	4r	.	1a	pa-	4r	.	4r	4r
*	*	*	*	*	*	*	*	*	*ij	*	*	*	*ij	*	*
4D\	5 3	4f#/	.	.	.	4D\	da	4d\	da	.	.	4ff#\	da	4dd\	4ff#\
4C#\	_ 3	4e/	.	.	.	4C#\	pa-	2c#\	pa-	.	.	(4ee\	pa-	2a/	2ee\
4E\	_ 3	4g/	.	.	.	4E\	.	.	.	.	.	4gg\)	.	.	.
=10	=10	=10	=10	=10	=10	=10	=10	=10	=10	=10	=10	=10	=10	=10	=10
4D\	_ 3	4f#/	.	2a/	.	4D\	.	2A\	-cem	2a\	-cem	4ff#\	-cem	2f#/	2dd\
*	*	*	*	*	*	*	*	*	*	*	*Xij	*	*Xij	*	*
4F#\	6 3	4d/	.	.	.	4F#\	.	.	.	.	.	4dd\	da	.	.
4E\	6 3	4c#/	.	4gg\	.	4E\	.	2A\	da	4g\	da	4cc#\	no-	4a/	4ee\
4D\	3	4d/	.	4ff#\	.	4D\	.	.	.	4f#\	pa-	4dd\	-bis	4dd\	4ff#\
!	!	!	!	!	!	!	!	!	!	!	!	!LO:LB:g=original	!	!	!
=11	=11	=11	=11	=11	=11	=11	=11	=11	=11	=11	=11	=11	=11	=11	=11
2G\	6	4a/	.	4ff#\	.	2G\	.	1B	pa-	2g\	.	2ee\	pa-	2ee\	2gg\
.	.	4g/	.	4ee\	.	.	.	.	.	.	.	.	.	.	.
2G#X\	5	4g/	.	4ee\	.	2G#X\	.	.	.	2f#\	.	2dd\	.	2dd\	2ff#\
.	.	4f#/	.	4dd\	.	.	.	.	.	.	.	.	.	.	.
!	!	!	!	!	!	!LO:LB:g=original	!	!	!	!LO:LB:g=original	!	!	!	!	!
=12	=12	=12	=12	=12	=12	=12	=12	=12	=12	=12	=12	=12	=12	=12	=12
4A\	.	4e/	.	4cc#\	.	4A\	-cem	4A\	-cem	4e\	-cem	4cc#\	-cem	4a/	4ee\
*	*	*	*	*	*	*	*	*	*Xij	*	*	*	*	*	*
4r	.	4r	.	4aa\	.	4r	.	4r	.	4a\	da	4r	.	4r	4r
!LO:TX:b:i:t=Verte	!	!	!	!	!	!	!	!	!	!	!	!	!	!	!
2r	.	2r	.	4aa\	.	2r	.	2r	.	4a\	no-	2r	.	2r	2r
.	.	.	.	4aa\	.	.	.	.	.	4a\	-bis	.	.	.	.
!LO:PB:g=original	!	!	!	!LO:LB:g=original	!	!	!	!LO:LB:g=original	!	!	!	!	!	!	!LO:LB:g=original
=13	=13	=13	=13	=13	=13	=13	=13	=13	=13	=13	=13	=13	=13	=13	=13
4r	.	4r	.	4aa\	.	4r	.	4r	.	1a	pa-	4r	.	4r	4r
4C#\	6_ 3	4a/	.	8bb\L	.	4C#\	da	4e\	da	.	.	4ee\	da	4a/	4ee\
.	.	.	.	8aa\J	.	.	.	.	.	.	.	.	.	.	.
!	!	!	!	!	!	!	!	!	!	!	!	!	!	!LO:LB:g=original	!
4D\	_ 3	4a/	.	8gg\L	.	(4D\	pa-	(4d\	pa-	.	.	(4ff#\	pa-	4dd\	4ff#\
.	.	.	.	8ff#\	.	.	.	.	.	.	.	.	.	.	.
4E\	_ 3	4a/	.	8ee\	.	4E\)	.	4c#\)	.	.	.	4gg\)	.	4ee\	4gg\
.	.	.	.	8gg\J	.	.	.	.	.	.	.	.	.	.	.
!	!	!LO:LB:g=original	!	!	!	!	!	!	!	!	!	!	!	!	!
=14	=14	=14	=14	=14	=14	=14	=14	=14	=14	=14	=14	=14	=14	=14	=14
4D\	_ 3	4a/	.	4ff#\	.	4D\	-cem	4d\	-cem	4a\	-cem	4ff#\	-cem	4dd\	4ff#\
*	*	*	*	*	*	*	*	*	*	*	*ij	*	*	*	*
4r	x	4r	.	4aa\	.	4r	.	4r	.	4a\	da	4r	.	4r	4r
2r	.	2r	.	4aa\	.	2r	.	2r	.	4a\	no-	2r	.	2r	2r
.	.	.	.	4aa\	.	.	.	.	.	4a\	-bis	.	.	.	.
=15	=15	=15	=15	=15	=15	=15	=15	=15	=15	=15	=15	=15	=15	=15	=15
4r	.	4r	.	4.aa\	.	4r	.	4r	.	1a	pa-	4r	.	4r	4r
*	*	*	*	*	*	*	*ij	*	*ij	*	*	*	*ij	*	*
4C#\	6_ 3	4a/	.	.	.	4C#\	da	4e\	da	.	.	4ee\	da	4a/	4ee\
.	.	.	.	16bb\LL	.	.	.	.	.	.	.	.	.	.	.
.	.	.	.	16aa\JJ	.	.	.	.	.	.	.	.	.	.	.
4D\	_ 3	4a/	.	8gg\L	.	(4D\	pa-	(4d\	pa-	.	.	(4ff#\	pa-	4dd\	4ff#\
.	.	.	.	8ff#\	.	.	.	.	.	.	.	.	.	.	.
4E\	_ 3	4a/	.	8ee\	.	4E\)	.	4c#\)	.	.	.	4gg\)	.	4ee\	4gg\
.	.	.	.	8gg\J	.	.	.	.	.	.	.	.	.	.	.
=16	=16	=16	=16	=16	=16	=16	=16	=16	=16	=16	=16	=16	=16	=16	=16
4D\	_ 3	4a|/	.	4ff#\	.	4D\	-cem	4d\	-cem	4a\	-cem	4ff#\	-cem	4dd\	4ff#\
*	*	*Xtuplet	*	*Xtuplet	*	*	*Xij	*	*Xij	*	*Xij	*	*Xij	*	*
4r	x	12aa\L	.	12aa\L	.	4r	.	4r	.	4r	.	4r	.	4r	4r
.	.	12ff#\	.	12ff#\	.	.	.	.	.	.	.	.	.	.	.
.	.	12dd\J	.	12dd\J	.	.	.	.	.	.	.	.	.	.	.
!	!	!	!	!	!	!	!	!	!	!	!	!LO:LB:g=original	!	!	!
4r	.	4a/	.	4a/	.	4r	.	4r	.	4r	.	4r	.	4r	4r
4D\	.	4a/	.	4a/	.	4D\	do-	4d\	do-	4a\	do-	4ff#\	do-	4dd\	4ff#\
=17	=17	=17	=17	=17	=17	=17	=17	=17	=17	=17	=17	=17	=17	=17	=17
4C#/	6_	4a/	.	4a/	.	4C#/	-na	4e\	-na	4a\	-na	4ee\	-na	4a/	4ee\
4r	.	12aa\L	.	12aa\L	.	4r	.	4r	.	4r	.	4r	.	4r	4r
.	.	12ee\	.	12ee\	.	.	.	.	.	.	.	.	.	.	.
.	.	12cc#\J	.	12cc#\J	.	.	.	.	.	.	.	.	.	.	.
4r	.	4a/	.	4a/	.	4r	.	4r	.	4r	.	4r	.	4r	4r
4C#/	.	4a/	.	4a/	.	(<4C#/	no-	(4e\	no-	(4a\	no-	(4ee\	no-	4a/	4ee\
!	!	!	!	!LO:LB:g=original	!	!LO:LB:g=original	!	!	!	!LO:LB:g=original	!	!	!	!	!
=18	=18	=18	=18	=18	=18	=18	=18	=18	=18	=18	=18	=18	=18	=18	=18
!	!	!	!	!	!	!LO:TX:a:t=P:problem:brak zakończenia łuku	!	!	!	!LO:TX:a:t=P:problem:brak zakończenia łuku	!	!	!	!	!
4D\	6_	4b\	.	8b\L	.	4D\)	.	4f#\)	.	4b\)	.	4dd\)	.	2dd\	2ff#\
.	.	.	.	8dd\	.	.	.	.	.	.	.	.	.	.	.
4D\	.	8dd\L	.	8ff#\	.	4D\	-bis	4f#\	-bis	4b\	-bis	4dd\	-bis	.	.
.	.	8b\J	.	8dd\J	.	.	.	.	.	.	.	.	.	.	.
!	!	!	!	!	!	!	!	!LO:LB:g=original	!	!	!	!	!	!	!
4E\	4	8b/L	.	8dd\L	.	2E\	pa-	2e\	pa-	4a\	pa-	4cc#\	pa-	2ee\	2ee\
.	.	8a/	.	8cc#\	.	.	.	.	.	.	.	.	.	.	.
4EE/	#	8a/	.	8cc#\	.	.	.	.	.	4g#X\	.	4b\	.	.	.
.	.	8g#X/J	.	8b\J	.	.	.	.	.	.	.	.	.	.	.
!LO:LB:g=original	!	!LO:LB:g=original	!	!	!	!	!	!	!	!	!	!	!	!LO:LB:g=original	!LO:LB:g=original
=19	=19	=19	=19	=19	=19	=19	=19	=19	=19	=19	=19	=19	=19	=19	=19
4AA/	.	4a/	.	4cc#\	.	2AA/	-cem	2e\	-cem	2a\	-cem	2cc#\	-cem	4a/	4ee\
4A\	.	4e/	.	16cc#\LL	.	.	.	.	.	.	.	.	.	4a/	4ee\
.	.	.	.	16b\	.	.	.	.	.	.	.	.	.	.	.
.	.	.	.	16cc#\	.	.	.	.	.	.	.	.	.	.	.
.	.	.	.	16dd\JJ	.	.	.	.	.	.	.	.	.	.	.
4AA/	.	4e/	.	4cc#\	.	2r	.	2r	.	2r	.	2r	.	4a/	4ee\
!LO:TX:a:i:t=pedal	!	!	!	!	!	!	!	!	!	!	!	!	!	!	!
4r	.	4r	.	4r	.	.	.	.	.	.	.	.	.	4r	4r
=20	=20	=20	=20	=20	=20	=20	=20	=20	=20	=20	=20	=20	=20	=20	=20
2e\	.	0r	.	0r	.	2e\	Do-	2B\	Do-	2g#X\	Do-	2ee\	Do-	00r	00r
2d\	.	.	.	.	.	2d\	-na	2B\	-na	2g#\	-na	2ee\	-na	.	.
=21	=21	=21	=21	=21	=21	=21	=21	=21	=21	=21	=21	=21	=21	=21	=21
!	!	!	!	!	!	!	!	!	!	!LO:SIC:v:s=2g#\	!	!	!	!	!
2c#\	.	.	.	.	.	2c#\	no-	2e\	no-	2g\	no-	2ee\	no-	.	.
!	!	!	!	!	!	!	!	!	!	!LO:SIC:v:s=2g#\	!	!	!	!	!
2B\	.	.	.	.	.	2B\	-bis	2e\	-bis	2g\	-bis	2ee\	-bis	.	.
!	!	!	!	!	!	!	!	!	!	!	!	!LO:LB:g=original	!	!	!
=22	=22	=22	=22	=22	=22	=22	=22	=22	=22	=22	=22	=22	=22	=22	=22
!	!	!	!	!	!LO:DY:a	!	!	!	!	!	!	!	!	!	!
1A#X	.	4r	.	4r	p	1A#X	pa-	1c#	pa-	1f#	pa-	1ee	pa-	.	.
!	!	!	!LO:DY:a	!	!	!	!	!	!	!	!	!	!	!	!
.	.	4a#X\	p	4cc#|\	.	.	.	.	.	.	.	.	.	.	.
.	.	4b\	.	4dd|\	.	.	.	.	.	.	.	.	.	.	.
.	.	4cc#\	.	4ee|\	.	.	.	.	.	.	.	.	.	.	.
=23	=23	=23	=23	=23	=23	=23	=23	=23	=23	=23	=23	=23	=23	=23	=23
1B	.	4dd\	.	4ff#|\	.	1B	-cem	1d	-cem	1f#	-cem	1dd	-cem	.	.
.	.	4ee\	.	4gg|\	.	.	.	.	.	.	.	.	.	.	.
.	.	4ff#\	.	4aa#X|\	.	.	.	.	.	.	.	.	.	.	.
.	.	4dd\	.	4bb|\	.	.	.	.	.	.	.	.	.	.	.
!	!	!	!	!	!	!	!	!	!	!LO:LB:g=original	!	!	!	!	!
=24	=24	=24	=24	=24	=24	=24	=24	=24	=24	=24	=24	=24	=24	=24	=24
2d\	.	0r	.	0r	.	2d\	do-	2A\	Do-	2f#\	Do-	2dd\	Do-	00r	00r
2c#\	.	.	.	.	.	2c#\	-na	2A\	-na	2f#\	-na	2dd\	-na	.	.
=25	=25	=25	=25	=25	=25	=25	=25	=25	=25	=25	=25	=25	=25	=25	=25
2B\	.	.	.	.	.	2B\	no-	2d\	no-	2f#\	no-	2dd\	no-	.	.
2An\	.	.	.	.	.	2An\	-bis	2d\	-bis	2f#\	-bis	2dd\	-bis	.	.
!	!	!	!	!LO:PB:g=original	!	!LO:LB:g=original	!	!LO:LB:g=original	!	!	!	!	!	!	!
=26	=26	=26	=26	=26	=26	=26	=26	=26	=26	=26	=26	=26	=26	=26	=26
1G#X	.	4r	.	4r	.	1G#X	pa-	1B	pa-	1e	pa-	1dd	pa-	.	.
.	.	4g#X/	.	4b|\	.	.	.	.	.	.	.	.	.	.	.
.	.	4an/	.	4cc#|\	.	.	.	.	.	.	.	.	.	.	.
.	.	4b\	.	4dd|\	.	.	.	.	.	.	.	.	.	.	.
=27	=27	=27	=27	=27	=27	=27	=27	=27	=27	=27	=27	=27	=27	=27	=27
1A	.	4cc#\	.	4ee|\	.	1A	-cem	1c#	-cem	1e	-cem	1cc#	-cem	.	.
.	.	4dd\	.	4ff#|\	.	.	.	.	.	.	.	.	.	.	.
.	.	4ee\	.	4gg#X|\	.	.	.	.	.	.	.	.	.	.	.
.	.	4cc#\	.	4aan|\	.	.	.	.	.	.	.	.	.	.	.
!LO:LB:g=original	!	!LO:LB:g=original	!	!	!	!	!	!	!	!	!	!	!	!	!
=28	=28	=28	=28	=28	=28	=28	=28	=28	=28	=28	=28	=28	=28	=28	=28
1D	.	4r	.	4r	.	1D	do-	1B	Do-	1e	do-	1g#X	do-	00r	00r
.	.	4g#X/	.	4g#X/	.	.	.	.	.	.	.	.	.	.	.
.	.	4e/	.	4e/	.	.	.	.	.	.	.	.	.	.	.
.	.	4g#/	.	4g#/	.	.	.	.	.	.	.	.	.	.	.
=29	=29	=29	=29	=29	=29	=29	=29	=29	=29	=29	=29	=29	=29	=29	=29
2C#/	.	4a/	.	4a/	.	2C#/	-na	2A\	-na	2e\	-na	2a\	-na	.	.
.	.	4a/	.	4a/	.	.	.	.	.	.	.	.	.	.	.
2r	.	4cc#\	.	4cc#\	.	2r	.	2r	.	2r	.	2r	.	.	.
.	.	4ee\	.	4ee\	.	.	.	.	.	.	.	.	.	.	.
!	!	!	!	!	!	!	!	!	!	!	!	!LO:LB:g=original	!	!	!
=30	=30	=30	=30	=30	=30	=30	=30	=30	=30	=30	=30	=30	=30	=30	=30
1G#X	.	4r	.	4r	.	1G#X	no-	1B	no-	1e	no-	1dd	no-	.	.
.	.	4dd\	.	4dd\	.	.	.	.	.	.	.	.	.	.	.
.	.	4b\	.	4b\	.	.	.	.	.	.	.	.	.	.	.
.	.	4dd\	.	4dd\	.	.	.	.	.	.	.	.	.	.	.
=31	=31	=31	=31	=31	=31	=31	=31	=31	=31	=31	=31	=31	=31	=31	=31
2A\	.	4cc#\	.	4cc#\	.	2A\	-bis	2A\	-bis	2e\	-bis	2cc#\	-bis	.	.
.	.	4ee\	.	4ee\	.	.	.	.	.	.	.	.	.	.	.
!	!	!	!	!	!	!LO:TX:b:i:t=Verte	!	!	!	!	!	!LO:TX:b:i:t=Verte	!	!	!
2r	.	4cc#\	.	4cc#\	.	2r	.	2r	.	2r	.	2r	.	.	.
.	.	4a/	.	4a/	.	.	.	.	.	.	.	.	.	.	.
!	!	!	!	!	!	!LO:LB:g=original	!	!	!	!LO:LB:g=original	!	!LO:PB:g=original	!	!	!
=32	=32	=32	=32	=32	=32	=32	=32	=32	=32	=32	=32	=32	=32	=32	=32
*	*	*	*	*	*	*	*	*	*ij	*	*	*	*	*	*
1D	.	4r	.	4r	.	1D	Do-	1B	Do-	1e	do-	1g#X	Do-	00r	00r
.	.	4g#X/	.	4g#X/	.	.	.	.	.	.	.	.	.	.	.
.	.	4b/	.	4b/	.	.	.	.	.	.	.	.	.	.	.
.	.	4g#/	.	4g#/	.	.	.	.	.	.	.	.	.	.	.
!	!	!	!	!LO:LB:g=original	!	!	!	!	!	!	!	!	!	!	!
=33	=33	=33	=33	=33	=33	=33	=33	=33	=33	=33	=33	=33	=33	=33	=33
1C#	.	4r	.	4r	.	1C#	-na	1A	-na	1e	-na	1a	-na	.	.
.	.	4a/	.	4a/	.	.	.	.	.	.	.	.	.	.	.
.	.	4cc#\	.	4cc#\	.	.	.	.	.	.	.	.	.	.	.
.	.	4a/	.	4a/	.	.	.	.	.	.	.	.	.	.	.
!	!	!LO:LB:g=original	!	!	!	!	!	!	!	!	!	!	!	!	!
=34	=34	=34	=34	=34	=34	=34	=34	=34	=34	=34	=34	=34	=34	=34	=34
1D	.	4r	.	4r	.	2D\	no-	2f#\	no-	2d\	no-	2b\	no-	.	.
.	.	4b\	.	4b\	.	.	.	.	.	.	.	.	.	.	.
.	.	4dd\	.	4dd\	.	2D\	-bis	2f#\	-bis	2d\	-bis	2b\	-bis	.	.
*	*	*	*	*	*	*	*	*	*Xij	*	*	*	*	*	*
.	.	4b\	.	4b\	.	.	.	.	.	.	.	.	.	.	.
!	!	!	!	!	!	!	!	!LO:LB:g=original	!	!	!	!	!	!	!
=35	=35	=35	=35	=35	=35	=35	=35	=35	=35	=35	=35	=35	=35	=35	=35
2E\	.	4a/	.	4a/	.	1E	pa-	1e	pa-	(2c#\	pa-	(2a\	pa-	.	.
.	.	4cc#\	.	4cc#\	.	.	.	.	.	.	.	.	.	.	.
2EE/	.	4g#X/	.	4g#X/	.	.	.	.	.	2B\)	.	2g#X\)	.	.	.
.	.	4b\	.	4b\	.	.	.	.	.	.	.	.	.	.	.
=36	=36	=36	=36	=36	=36	=36	=36	=36	=36	=36	=36	=36	=36	=36	=36
!	!	!	!LO:DY:a	!	!LO:DY:a	!	!	!	!	!	!	!	!	!	!
4AA/	.	4a/	f	4a/	f	4AA/	-cem	4e\	-cem	4c#\	-cem	4a\	-cem	4a/	4ee\
4r	.	8cc#\L	.	8cc#\L	.	4r	.	4r	.	4r	.	8cc#\L	da	4r	4r
.	.	8ee\J	.	8ee\J	.	.	.	.	.	.	.	8ee\J	.	.	.
!	!	!	!	!	!	!	!	!LO:TX:b:i:t=Verte	!	!	!	!	!	!	!
2r	.	8ee\L	.	8ee\L	.	2r	.	2r	.	2r	.	8ee\L	pa-	2r	2r
.	.	8dd\	.	8dd\	.	.	.	.	.	.	.	8dd\	.	.	.
.	.	8b\	.	8b\	.	.	.	.	.	.	.	8b\	.	.	.
.	.	8dd\J	.	8dd\J	.	.	.	.	.	.	.	8dd\J	.	.	.
!LO:LB:g=original	!	!	!	!	!	!	!	!LO:PB:g=original	!	!	!	!	!	!	!
=37	=37	=37	=37	=37	=37	=37	=37	=37	=37	=37	=37	=37	=37	=37	=37
!LO:TX:a:i:t=Org&colon;	!	!	!	!	!	!	!	!	!	!	!	!	!	!	!
4r	.	4cc#\	.	4cc#\	.	4r	.	4r	.	4r	.	4cc#\	-cem	4r	4r
4A\	5_ 3	4aa\	.	4aa\	.	4A\	da	4A/	da	4cc#\	da	4aa\	da	4a/	4ee\
*	*	*2\right	*	*2\right	*	*	*	*	*	*	*	*	*	*	*
4G#X\	_ 3	[<2ee\	.	[<2ee\	.	(4G#X\	pa-	2G#X/	pa-	4b\	pa-	2ee\	pa-	4ee\	4ee\
4B\	_ 3	.	.	.	.	4B\)	.	.	.	4dd\	.	.	.	4ee\	4ee\
!	!	!	!	!	!	!	!	!	!	!	!	!LO:LB:g=original	!	!	!
=38	=38	=38	=38	=38	=38	=38	=38	=38	=38	=38	=38	=38	=38	=38	=38
4A\	_ 3	4ee\]	.	4ee\]	.	4A\	-cem	4A/	-cem	4cc#\	-cem	4ee\	-cem	4a/	4ee\
4r	x	8cc#\L	.	8cc#\L	.	4r	.	4r	.	4r	.	8cc#\L	da	4r	4r
.	.	8ee\J	.	8ee\J	.	.	.	.	.	.	.	8ee\J	.	.	.
2r	.	8ee\L	.	8ee\L	.	2r	.	2r	.	2r	.	8ee\L	pa-	2r	2r
.	.	8dd\	.	8dd\	.	.	.	.	.	.	.	8dd\	.	.	.
.	.	8b\	.	8b\	.	.	.	.	.	.	.	8b\	.	.	.
.	.	8dd\J	.	8dd\J	.	.	.	.	.	.	.	8dd\J	.	.	.
!	!	!LO:LB:g=original	!	!LO:LB:g=original	!	!LO:LB:g=original	!	!	!	!LO:LB:g=original	!	!	!	!	!
=39	=39	=39	=39	=39	=39	=39	=39	=39	=39	=39	=39	=39	=39	=39	=39
4r	.	4cc#\	.	4cc#\	.	4r	.	4r	.	4r	.	4cc#\	-cem	4r	4r
*	*	*	*	*	*	*	*	*	*ij	*	*	*	*	*	*
4A\	5_ 3	4aa\	.	4aa\	.	4A\	da	4A/	da	4cc#\	da	4aa\	da	4a/	4ee\
4G#X\	_ 3	4ee\	.	[<2ee\	.	(4G#X\	pa-	2G#X/	pa-	4b\	pa-	2ee\	pa-	4ee\	4ee\
4B\	_ 3	4dd\	.	.	.	4B\)	.	.	.	4dd\	.	.	.	4ee\	4ee\
!	!	!	!	!	!	!	!	!	!	!	!	!	!	!LO:LB:g=original	!LO:LB:g=original
=40	=40	=40	=40	=40	=40	=40	=40	=40	=40	=40	=40	=40	=40	=40	=40
4A\	.	2cc#\	.	2ee\]	.	4A\	.	2A\	-cem	2cc#\	-cem	2ee\	.	4a/	4ee\
*	*	*	*	*	*	*	*	*	*Xij	*	*	*	*	*	*
8B\L	.	.	.	.	.	8B\L	.	.	.	.	.	.	.	4r	4r
8A\J	.	.	.	.	.	8A\J	.	.	.	.	.	.	.	.	.
8G#X\L	.	[<2b\	.	[<2dd\	.	8G#X\L	.	2B\	da	2b\	da	[<2dd\	.	2r	2r
8F#\	x	.	.	.	.	8F#\	.	.	.	.	.	.	.	.	.
8E\	.	.	.	.	.	8E\	.	.	.	.	.	.	.	.	.
8D\J	.	.	.	.	.	8D\J	.	.	.	.	.	.	.	.	.
=41	=41	=41	=41	=41	=41	=41	=41	=41	=41	=41	=41	=41	=41	=41	=41
8C#\L	7_ 2_	2b\]	.	2dd\]	.	8C#\L	.	1f#	pa-	2b\	pa-	2dd\]	.	0r	0r
8E\	.	.	.	.	.	8E\	.	.	.	.	.	.	.	.	.
8A\	.	.	.	.	.	8A\	.	.	.	.	.	.	.	.	.
!	!	!	!	!	!	!LO:SIC:v:s=8G#\J	!	!	!	!	!	!	!	!	!
8G#X\J	.	.	.	.	.	8G\J	.	.	.	.	.	.	.	.	.
8F#\L	5_	[2a/	.	[<2cc#\	.	8F#\L	.	.	.	2a\	.	2cc#\	.	.	.
8E\	.	.	.	.	.	8E\	.	.	.	.	.	.	.	.	.
8D\	.	.	.	.	.	8D\	.	.	.	.	.	.	.	.	.
8C#\J	.	.	.	.	.	8C#\J	.	.	.	.	.	.	.	.	.
!LO:LB:g=original	!	!	!	!	!	!	!	!	!	!	!	!	!	!	!
=42	=42	=42	=42	=42	=42	=42	=42	=42	=42	=42	=42	=42	=42	=42	=42
8BB\L	7_ 2_	2a/]	.	2cc#\]	.	8BB\L	.	1e	.	2a\	.	2cc#\	.	.	.
8D\	.	.	.	.	.	8D\	.	.	.	.	.	.	.	.	.
!	!	!	!	!	!	!LO:SIC:v:s=8G#\	!	!	!	!	!	!	!	!	!
8G#X\	.	.	.	.	.	8G\	.	.	.	.	.	.	.	.	.
8F#\J	5_ #_	.	.	.	.	8F#\J	.	.	.	.	.	.	.	.	.
8E\L	.	2g#X/	.	2b\	.	8E/L	.	.	.	2g#X\	.	2b\	.	.	.
8D\	.	.	.	.	.	8D/	.	.	.	.	.	.	.	.	.
8C#\	.	.	.	.	.	8C#/	.	.	.	.	.	.	.	.	.
8BB\J	.	.	.	.	.	8BB/J	.	.	.	.	.	.	.	.	.
!	!	!	!	!	!	!LO:LB:g=original	!	!	!	!	!	!	!	!	!
=43	=43	=43	=43	=43	=43	=43	=43	=43	=43	=43	=43	=43	=43	=43	=43
4AA/	x	4a/	.	4cc#\	.	4AA/	.	4e\	-cem	2.a\	.	4cc#\	-cem	4r	4r
!	!	!	!	!	!	!	!	!LO:LB:g=original	!	!	!	!LO:LB:g=original	!	!	!
4F#\	.	4cc#\	.	2aa\	.	4F#\	.	4f#\	da	.	.	4cc#\	da	4ff#\	4aa\
4D\	6 5	2b\	.	.	.	4D\	.	(4f#\	pa-	.	.	2b\	pa-	4ff#\	4aa\
4E\	#	.	.	4gg#X\	.	4E\	.	4e\)	.	4g#X\	.	.	.	4ee\	4gg#X\
=44	=44	=44	=44	=44	=44	=44	=44	=44	=44	=44	=44	=44	=44	=44	=44
!LO:TX:a:t=Solo	!	!	!	!	!	!	!	!	!	!	!	!	!	!	!
4AA/	.	4cc#\	.	4aa\	.	4AA/	-cem	4e\	-cem	4a\	-cem	4cc#\	-cem	4a/	4aa\
4r	.	16aa\LL	.	16aa\LL	.	4r	.	4r	.	4r	.	4r	.	4r	4r
.	.	16gg#X\	.	16gg#X\	.	.	.	.	.	.	.	.	.	.	.
.	.	16ff#\	.	16ff#\	.	.	.	.	.	.	.	.	.	.	.
.	.	16ee\JJ	.	16ee\JJ	.	.	.	.	.	.	.	.	.	.	.
4r	.	4ee\	.	4ee\	.	2r	.	2r	.	2r	.	2r	.	4r	4r
4A\	.	4ee\	.	4ee\	.	.	.	.	.	.	.	.	.	4a/	4ee\
!	!	!LO:LB:g=original	!	!LO:LB:g=original	!	!	!	!	!	!LO:LB:g=original	!	!	!	!	!
=45	=45	=45	=45	=45	=45	=45	=45	=45	=45	=45	=45	=45	=45	=45	=45
4G#X\	6_	8ee\L	.	8ee\L	.	00r	.	00r	.	00r	.	00r	.	4ee\	4ee\
.	.	8dd\	.	8dd\	.	.	.	.	.	.	.	.	.	.	.
4r	.	8cc#\	.	8cc#\	.	.	.	.	.	.	.	.	.	4r	4r
.	.	8dd\J	.	8dd\J	.	.	.	.	.	.	.	.	.	.	.
4r	.	4.b\	.	4.b\	.	.	.	.	.	.	.	.	.	4r	4r
4G#\	.	.	.	.	.	.	.	.	.	.	.	.	.	4ee\	4ee\
.	.	16cc#\LL	.	16cc#\LL	.	.	.	.	.	.	.	.	.	.	.
.	.	16dd\JJ	.	16dd\JJ	.	.	.	.	.	.	.	.	.	.	.
=46	=46	=46	=46	=46	=46	=46	=46	=46	=46	=46	=46	=46	=46	=46	=46
4A\	x	8dd\L	.	8dd\L	.	.	.	.	.	.	.	.	.	4a/	4ee\
.	.	8cc#\	.	8cc#\	.	.	.	.	.	.	.	.	.	.	.
4r	.	8b\	.	8b\	.	.	.	.	.	.	.	.	.	4r	4r
.	.	8cc#\J	.	8cc#\J	.	.	.	.	.	.	.	.	.	.	.
4r	.	4.a/	.	4.a/	.	.	.	.	.	.	.	.	.	4r	4r
4A\	.	.	.	.	.	.	.	.	.	.	.	.	.	4a/	4ee\
.	.	16b\LL	.	16b\LL	.	.	.	.	.	.	.	.	.	.	.
.	.	16cc#\JJ	.	16cc#\JJ	.	.	.	.	.	.	.	.	.	.	.
!	!	!	!	!	!	!	!	!	!	!	!	!	!	!	!LO:LB:g=original
=47	=47	=47	=47	=47	=47	=47	=47	=47	=47	=47	=47	=47	=47	=47	=47
4D\	6_	8b\L	.	8dd\L	.	.	.	.	.	.	.	.	.	2dd\	2ff#\
.	.	8cc#\	.	8ee\	.	.	.	.	.	.	.	.	.	.	.
4D\	.	8dd\	.	8ff#\	.	.	.	.	.	.	.	.	.	.	.
.	.	8b\J	.	8dd\J	.	.	.	.	.	.	.	.	.	.	.
4E\	4	8b/L	.	8dd\L	.	.	.	.	.	.	.	.	.	4ee\	4ee\
.	.	8a/	.	8cc#\	.	.	.	.	.	.	.	.	.	.	.
4EE/	#	8a/	.	8cc#\	.	.	.	.	.	.	.	.	.	4ee\	4ee\
.	.	8g#X/J	.	8b\J	.	.	.	.	.	.	.	.	.	.	.
!LO:LB:g=original	!	!	!	!	!	!	!	!	!	!	!	!	!	!LO:LB:g=original	!
=48	=48	=48	=48	=48	=48	=48	=48	=48	=48	=48	=48	=48	=48	=48	=48
4AA/	.	4a/	.	4cc#\	.	.	.	.	.	.	.	.	.	4a/	4ee\
4A\	.	4cc#\	.	4ee\	.	.	.	.	.	.	.	.	.	4a/	4ee\
4AA/	.	4a/	.	4cc#\	.	.	.	.	.	.	.	.	.	4a/	4ee\
!LO:TX:a:i:t=tutti	!	!LO:TX:b:i:t=Verte	!	!	!	!	!	!	!	!	!	!	!	!	!
4r	.	4r	.	4r	.	.	.	.	.	.	.	.	.	4r	4r
!	!	!LO:PB:g=original	!	!	!	!	!	!	!	!	!	!	!	!	!
=49	=49	=49	=49	=49	=49	=49	=49	=49	=49	=49	=49	=49	=49	=49	=49
2A\	.	2e/	.	4.cc#\	.	2A\	Do-	2A\	Do-	2cc#\	Do-	2ee\	Do-	2a/	1ee
.	.	.	.	16dd\LL	.	.	.	.	.	.	.	.	.	.	.
.	.	.	.	16cc#\JJ	.	.	.	.	.	.	.	.	.	.	.
!	!	!	!	!LO:LB:g=original	!	!	!	!	!	!	!	!	!	!	!
2G#X\	6 5	2e/	.	4b\	.	2G#X\	-na	2B\	-na	2dd\	-na	2ee\	-na	2ee\	.
.	.	.	.	4dd\	.	.	.	.	.	.	.	.	.	.	.
=50	=50	=50	=50	=50	=50	=50	=50	=50	=50	=50	=50	=50	=50	=50	=50
2A\	.	4e/	.	4cc#\	.	2A\	no-	2A\	no-	2cc#\	no-	2ee\	no-	2a/	2ee\
.	.	4c#/	.	4ee\	.	.	.	.	.	.	.	.	.	.	.
2D\	6	4B/	.	4dd\	.	2D\	-bis	2f#\	-bis	2b\	-bis	2dd\	-bis	2dd\	2ff#\
.	.	4f#/	.	4b\	.	.	.	.	.	.	.	.	.	.	.
=51	=51	=51	=51	=51	=51	=51	=51	=51	=51	=51	=51	=51	=51	=51	=51
2E\	4	4a/	.	4cc#\	.	1E	pa-	1e	pa-	2a\	pa-	2cc#\	pa-	2ee\	2ee\
.	.	4cc#\	.	4aa\	.	.	.	.	.	.	.	.	.	.	.
2EE/	#	4g#X/	.	4b\	.	.	.	.	.	2g#X\	.	2b\	.	2ee\	2ee\
.	.	4b\	.	4gg#X\	.	.	.	.	.	.	.	.	.	.	.
=52	=52	=52	=52	=52	=52	=52	=52	=52	=52	=52	=52	=52	=52	=52	=52
4AA/	.	4cc#\	.	4aa\	.	4AA/	-cem	4e\	-cem	4a\	-cem	4cc#\	-cem	4a/	4ee\
4r	.	4r	.	4ee\	.	4r	.	4r	.	4r	.	4ee\	da	4r	4r
!	!	!	!	!	!	!	!	!	!	!LO:TX:b:i:t=Verte	!	!LO:LB:g=original	!	!LO:TX:b:i:t=Verte	!LO:TX:b:i:t=Verte
2r	.	2r	.	4ee\	.	2r	.	2r	.	2r	.	4ee\	no-	2r	2r
.	.	.	.	4ee\	.	.	.	.	.	.	.	4ee\	-bis	.	.
!	!	!	!	!	!	!LO:LB:g=original	!	!LO:LB:g=original	!	!LO:PB:g=original	!	!	!	!LO:PB:g=original	!LO:PB:g=original
=53	=53	=53	=53	=53	=53	=53	=53	=53	=53	=53	=53	=53	=53	=53	=53
4r	.	4r	.	1ee	.	4r	.	4r	.	4r	.	1ee	pa-	4r	4r
4A\	5 3	4cc#\	.	.	.	4A\	da	4A/	da	4cc#\	da	.	.	4a/	4ee\
4G#X\	_ 3	4b\	.	.	.	(4G#X\	pa-	2G#X/	pa-	(4b\	pa-	.	.	4ee\	4ee\
4B\	_ 3	4dd\	.	.	.	4B\)	.	.	.	4dd\)	.	.	.	4ee\	4ee\
=54	=54	=54	=54	=54	=54	=54	=54	=54	=54	=54	=54	=54	=54	=54	=54
4A\	_ 3	4cc#\	.	4ee\	.	4A\	-cem	4A/	-cem	4cc#\	-cem	4ee\	-cem	4a/	4ee\
4r	x	4r	.	8gg#X\L	.	4r	.	4r	.	4r	.	8gg#X\L	da	4r	4r
.	.	.	.	8aa\J	.	.	.	.	.	.	.	8aa\J	.	.	.
2r	.	2r	.	4ee\	.	2r	.	2r	.	2r	.	4ee\	no-	2r	2r
.	.	.	.	4ee\	.	.	.	.	.	.	.	4ee\	-bis	.	.
!LO:LB:g=original	!	!LO:LB:g=original	!	!	!	!	!	!	!	!	!	!	!	!	!
=55	=55	=55	=55	=55	=55	=55	=55	=55	=55	=55	=55	=55	=55	=55	=55
4r	.	4r	.	1ee	.	4r	.	4r	.	4r	.	1ee	pa-	4r	4r
*	*	*	*	*	*	*	*ij	*	*ij	*	*ij	*	*	*	*
4A\	5_ 3	4cc#\	.	.	.	4A\	da	4A/	da	4cc#\	da	.	.	4a/	4ee\
4G#X\	_ 3	4b\	.	.	.	4G#X\	pa-	2G#X/	pa-	(4b\	pa-	.	.	4ee\	4ee\
4B\	_ 3	4dd\	.	.	.	4B\	.	.	.	4dd\)	.	.	.	4ee\	4ee\
!	!	!	!	!LO:LB:g=original	!	!	!	!	!	!	!	!	!	!	!
=56	=56	=56	=56	=56	=56	=56	=56	=56	=56	=56	=56	=56	=56	=56	=56
4A\	_ 3	4cc#\	.	4ee\	.	4A\	-cem	4A/	-cem	4cc#\	-cem	4ee\	-cem	4a/	4ee\
*	*	*	*	*	*	*	*	*	*	*	*Xij	*	*	*	*
4r	x	4r	.	8gg#X\L	.	4r	.	4r	.	4a\	da	4r	.	4r	4r
.	.	.	.	8aa\J	.	.	.	.	.	.	.	.	.	.	.
2r	.	2r	.	4a/	.	2r	.	2r	.	4a\	no-	2r	.	2r	2r
.	.	.	.	4a/	.	.	.	.	.	4a\	-bis	.	.	.	.
=57	=57	=57	=57	=57	=57	=57	=57	=57	=57	=57	=57	=57	=57	=57	=57
4r	.	4r	.	1a	.	4r	.	4r	.	1a	pa-	4r	.	4r	4r
4D\	5_ 3	4f#/	.	.	.	4D\	da	4d\	da	.	.	4ff#\	da	4dd\	4ff#\
4C#\	_ 3	4e/	.	.	.	4C#\	pa-	2c#\	pa-	.	.	(4ee\	pa-	2a/	2ee\
4E\	_ 3	4g/	.	.	.	4E\	.	.	.	.	.	4ggn\)	.	.	.
!	!	!	!	!	!	!	!	!	!	!LO:LB:g=original	!	!	!	!	!
=58	=58	=58	=58	=58	=58	=58	=58	=58	=58	=58	=58	=58	=58	=58	=58
4D\	_ 3	4f#/	.	8a\L	.	4D\	-cem	4d\	-cem	4a\	-cem	4ff#\	-cem	4f#/	4dd\
*	*	*	*	*	*	*	*Xij	*	*Xij	*	*	*	*	*	*
.	.	.	.	8dd\	.	.	.	.	.	.	.	.	.	.	.
4r	x	8ff#\L	.	8ff#\	.	4r	.	4r	.	4r	.	4r	.	4r	4r
.	.	8aa\J	.	8aa\J	.	.	.	.	.	.	.	.	.	.	.
!	!	!	!	!	!	!LO:LB:g=original	!	!LO:LB:g=original	!	!	!	!LO:LB:g=original	!	!	!
4r	.	8gg\L	.	8gg\L	.	4r	.	4r	.	4r	.	4r	.	4r	4r
.	.	8ff#\	.	8ff#\	.	.	.	.	.	.	.	.	.	.	.
4F#\	6	8ee\	.	8ee\	.	(4F#\	Do-	[<4A\	do-	(4f#\	Do-	(4dd\	do-	4dd\	4ff#\
.	.	8dd\J	.	8dd\J	.	.	.	.	.	.	.	.	.	.	.
!	!	!	!	!	!	!	!	!	!	!	!	!	!	!LO:LB:g=original	!LO:LB:g=original
=59	=59	=59	=59	=59	=59	=59	=59	=59	=59	=59	=59	=59	=59	=59	=59
2A\	.	8cc#\L	.	8cc#\L	.	2A\)	-na	2A\]	.	2g\)	.	2ee\)	.	1a	1ee
.	.	8b\	.	8b\	.	.	.	.	.	.	.	.	.	.	.
.	.	8cc#\	.	8cc#\	.	.	.	.	.	.	.	.	.	.	.
.	.	8dd\J	.	8dd\J	.	.	.	.	.	.	.	.	.	.	.
2C#/	6 5	8ee\L	.	8ee\L	.	2C#/	.	2A\	-na	2g\	-na	2ee\	-na	.	.
.	.	8ff#\	.	8ff#\	.	.	.	.	.	.	.	.	.	.	.
.	.	8gg\	.	8gg\	.	.	.	.	.	.	.	.	.	.	.
.	.	8ee\J	.	8ee\J	.	.	.	.	.	.	.	.	.	.	.
!	!	!LO:LB:g=original	!	!	!	!	!	!	!	!	!	!	!	!	!
=60	=60	=60	=60	=60	=60	=60	=60	=60	=60	=60	=60	=60	=60	=60	=60
2D\	.	4ff#\	.	4ff#\	.	2D\	no-	2A\	no-	2f#\	no-	2dd\	no-	2f#/	2dd\
.	.	8aa\L	.	8aa\L	.	.	.	.	.	.	.	.	.	.	.
.	.	8ff#\J	.	8ff#\J	.	.	.	.	.	.	.	.	.	.	.
2F#\	6	4dd\	.	4dd\	.	2F#\	-bis	2A\	-bis	2a\	-bis	2dd\	-bis	2r	2r
.	.	4dd\	.	4dd\	.	.	.	.	.	.	.	.	.	.	.
!	!	!	!	!LO:LB:g=original	!	!	!	!	!	!	!	!	!	!	!
=61	=61	=61	=61	=61	=61	=61	=61	=61	=61	=61	=61	=61	=61	=61	=61
*	*	*	*	*	*	*	*ij	*	*ij	*	*	*	*	*	*
2G\	6	2b\	.	8ee\L	.	(2G\	no-	2B\	no-	2b\	pa-	2ee\	pa-	0r	0r
.	.	.	.	8cc#\	.	.	.	.	.	.	.	.	.	.	.
.	.	.	.	8ee\	.	.	.	.	.	.	.	.	.	.	.
.	.	.	.	8gg\J	.	.	.	.	.	.	.	.	.	.	.
4A\	6	2cc#\	.	8gg\L	.	4A\)	.	2c#\	-bis	4a\	.	4ff#\	.	.	.
*	*	*	*	*	*	*	*	*	*Xij	*	*	*	*	*	*
.	.	.	.	8ff#\	.	.	.	.	.	.	.	.	.	.	.
4A#X\	5	.	.	8ff#\	.	4A#X\	-bis	.	.	4g\	.	4ee\	.	.	.
*	*	*	*	*	*	*	*Xij	*	*	*	*	*	*	*	*
.	.	.	.	8ee\J	.	.	.	.	.	.	.	.	.	.	.
!LO:LB:g=original	!	!	!	!	!	!	!	!	!	!	!	!	!	!	!
=62	=62	=62	=62	=62	=62	=62	=62	=62	=62	=62	=62	=62	=62	=62	=62
4B\	.	2f#/	.	8dd\L	.	2B\	pa-	2B\	pa-	2f#\	.	2dd\	.	.	.
.	.	.	.	8ff#\	.	.	.	.	.	.	.	.	.	.	.
4BB/	.	.	.	8ee\	.	.	.	.	.	.	.	.	.	.	.
.	.	.	.	8dd\J	.	.	.	.	.	.	.	.	.	.	.
4E\	6	4e/	.	8dd\L	.	4E\	.	2G/	.	4e\	.	4cc#\	.	.	.
.	.	.	.	8cc#\	.	.	.	.	.	.	.	.	.	.	.
4E#X\	5	4d/	.	8cc#\	.	4E#X\	.	.	.	4d\	.	4b\	.	.	.
.	.	.	.	8b\J	.	.	.	.	.	.	.	.	.	.	.
=63	=63	=63	=63	=63	=63	=63	=63	=63	=63	=63	=63	=63	=63	=63	=63
4F#\	#	4c#/	.	4a#X/	.	4F#\	-cem	4F#/	-cem	4c#\	-cem	4a#X\	-cem	1r	1r
4r	.	4r	.	4ff#\	.	4r	.	4r	.	4r	.	4ff#\	da	.	.
2r	.	2r	.	4ff#\	.	2r	.	2r	.	2r	.	4ff#\	no-	.	.
.	.	.	.	4ff#\	.	.	.	.	.	.	.	4ff#\	-bis	.	.
!	!	!	!	!	!	!LO:LB:g=original	!	!	!	!LO:LB:g=original	!	!LO:LB:g=original	!	!	!
=64	=64	=64	=64	=64	=64	=64	=64	=64	=64	=64	=64	=64	=64	=64	=64
4r	.	4r	.	1ff#	.	4r	.	4r	.	4r	.	1ff#	pa-	4r	4r
4B\	5_ 3	4dd\	.	.	.	4B\	da	4B\	da	4dd\	da	.	.	4f#/	4ff#\
4A#X\	_ 3	4cc#\	.	.	.	(4A#X\	pa-	2A#X\	pa-	4cc#\	pa-	.	.	4f#/	4ff#\
4c#\	_ 3	4ee\	.	.	.	4c#\)	.	.	.	4ee\	.	.	.	4f#/	4ff#\
!	!	!	!	!	!	!	!	!LO:LB:g=original	!	!	!	!	!	!	!
=65	=65	=65	=65	=65	=65	=65	=65	=65	=65	=65	=65	=65	=65	=65	=65
4B\	_ 3	4dd\	.	4ff#\	.	4B\	-cem	4B\	-cem	4dd\	-cem	4ff#\	-cem	4f#/	4ff#\
4r	x	4r	.	8aa#X\L	.	4r	.	4r	.	4r	.	8aa#X\L	da	4r	4r
.	.	.	.	8bb\J	.	.	.	.	.	.	.	8bb\J	.	.	.
2r	.	2r	.	4ff#\	.	2r	.	2r	.	2r	.	4ff#\	no-	2r	2r
.	.	.	.	4ff#\	.	.	.	.	.	.	.	4ff#\	-bis	.	.
!	!	!LO:LB:g=original	!	!LO:LB:g=original	!	!	!	!	!	!	!	!	!	!	!
=66	=66	=66	=66	=66	=66	=66	=66	=66	=66	=66	=66	=66	=66	=66	=66
4r	.	4r	.	1ff#	.	4r	.	4r	.	4r	.	1ff#	pa-	4r	4r
*	*	*	*	*	*	*	*ij	*	*	*	*ij	*	*	*	*
4B\	5_ 3	4dd\	.	.	.	4B\	da	4B\	da	4dd\	da	.	.	4f#/	4ff#\
4A#X\	_ 3	4cc#\	.	.	.	(4A#X\	pa-	2A#X\	pa-	4cc#\	pa-	.	.	4f#/	4ff#\
4c#\	_ 3	4ee\	.	.	.	4c#\)	.	.	.	4ee\	.	.	.	4f#/	4ff#\
=67	=67	=67	=67	=67	=67	=67	=67	=67	=67	=67	=67	=67	=67	=67	=67
4B\	_ 3	4dd\	.	4ff#\	.	4B\	-cem	4B\	-cem	4dd\	-cem	4ff#\	-cem	4f#/	4ff#\
*	*	*	*	*	*	*	*	*	*	*	*	*	*ij	*	*
4r	x	4r	.	8aa#X\L	.	4r	.	4r	.	4r	.	8aa#X\L	da	4r	4r
.	.	.	.	8bb\J	.	.	.	.	.	.	.	8bb\J	.	.	.
2r	.	2r	.	4ff#\	.	2r	.	2r	.	2r	.	4ff#\	no-	2r	2r
.	.	.	.	4ff#\	.	.	.	.	.	.	.	4ff#\	-bis	.	.
!	!	!	!	!	!	!	!	!	!	!	!	!	!	!LO:LB:g=original	!LO:LB:g=original
=68	=68	=68	=68	=68	=68	=68	=68	=68	=68	=68	=68	=68	=68	=68	=68
4r	.	4r	.	[<1ff#	.	4r	.	4r	.	4r	.	1ff#	pa-	4r	4r
*	*	*	*	*	*	*	*	*	*ij	*	*	*	*	*	*
4B\	5_ 3	4dd\	.	.	.	4B\	da	4B\	da	4dd\	da	.	.	4f#/	4ff#\
4A#X\	_ 3	4cc#\	.	.	.	(4A#X\	pa-	2A#X\	pa-	4cc#\	pa-	.	.	4f#/	4ff#\
4c#\	_ 3	4ee\	.	.	.	4c#\)	.	.	.	4ee\	.	.	.	4f#/	4ff#\
!LO:LB:g=original	!	!	!	!	!	!	!	!	!	!	!	!	!	!	!
=69	=69	=69	=69	=69	=69	=69	=69	=69	=69	=69	=69	=69	=69	=69	=69
4B\	x	4dd\	.	2ff#\]	.	4B\	-cem	2B\	-cem	4dd\	-cem	2ff#\	-cem	2f#/	2ff#\
*	*	*	*	*	*	*	*Xij	*	*	*	*Xij	*	*Xij	*	*
!	!	!	!	!	!	!LO:LB:g=original	!	!	!	!LO:LB:g=original	!	!	!	!	!
4d\	6	4b\	.	.	.	4d\	da	.	.	4b\	da	.	.	.	.
4c#\	6\	4a#X\	.	4ee\	.	4c#\	no-	2F#/	da	4a#X\	no-	(4ee\	da	2r	2r
4B\	.	4b\	.	4dd\	.	4B\	-bis	.	.	4b\	-bis	4dd\)	.	.	.
!	!	!	!	!	!	!	!	!	!	!	!	!LO:LB:g=original	!	!	!
=70	=70	=70	=70	=70	=70	=70	=70	=70	=70	=70	=70	=70	=70	=70	=70
2E\	6	4f#/	.	4dd\	.	2E\	pa-	1G	pa-	2cc#\	pa-	2ee\	pa-	0r	0r
.	.	4e/	.	4cc#\	.	.	.	.	.	.	.	.	.	.	.
2E#X\	5	4e/	.	4cc#\	.	2E#X\	.	.	.	2b\	.	2dd\	.	.	.
.	.	4d/	.	4b\	.	.	.	.	.	.	.	.	.	.	.
=71	=71	=71	=71	=71	=71	=71	=71	=71	=71	=71	=71	=71	=71	=71	=71
4F#\	#	4c#/	.	4a#X/	.	4F#\	-cem	4F#/	-cem	4a#X\	-cem	4cc#\	-cem	.	.
*	*	*	*	*	*	*	*	*	*Xij	*	*	*	*	*	*
4r	.	4r	.	4ff#\	.	4r	.	4r	.	4r	.	4ff#\	da	.	.
2r	.	2r	.	4ff#\	.	2r	.	2r	.	2r	.	4ff#\	no-	.	.
.	.	.	.	4ff#\	.	.	.	.	.	.	.	4ff#\	-bis	.	.
!	!	!LO:LB:g=original	!	!	!	!	!	!LO:LB:g=original	!	!	!	!	!	!	!
=72	=72	=72	=72	=72	=72	=72	=72	=72	=72	=72	=72	=72	=72	=72	=72
4r	.	4r	.	4.ff#\	.	4r	.	4r	.	4r	.	1ff#	pa-	4r	4r
4A#X\	6_ 3	4f#/	.	.	.	4A#X\	da	4c#\	da	4f#\	da	.	.	4f#/	4ff#\
.	.	.	.	16gg\LL	.	.	.	.	.	.	.	.	.	.	.
.	.	.	.	16ff#\JJ	.	.	.	.	.	.	.	.	.	.	.
!	!	!	!	!LO:LB:g=original	!	!	!	!	!	!	!	!	!	!	!
4B\	_ 3	4f#/	.	8ee\L	.	(4B\	pa-	(4d\	pa-	2f#\	pa-	.	.	4f#/	4ff#\
.	.	.	.	8dd\	.	.	.	.	.	.	.	.	.	.	.
4c#\	_ 3	4f#/	.	8cc#\	.	4c#\)	.	4e\)	.	.	.	.	.	4f#/	4ff#\
.	.	.	.	8ee\J	.	.	.	.	.	.	.	.	.	.	.
=73	=73	=73	=73	=73	=73	=73	=73	=73	=73	=73	=73	=73	=73	=73	=73
4B\	_ 3	4f#/	.	4dd\	.	4B\	-cem	4d\	-cem	4f#\	-cem	4ff#\	-cem	4f#/	4ff#\
4r	x	4r	.	4aan\	.	4r	.	4r	.	4an\	da	4r	.	4r	4r
2r	.	2r	.	4aa\	.	2r	.	2r	.	4a\	no-	2r	.	2r	2r
.	.	.	.	4aa\	.	.	.	.	.	4a\	-bis	.	.	.	.
!	!	!	!	!	!	!	!	!	!	!LO:LB:g=original	!	!	!	!	!
=74	=74	=74	=74	=74	=74	=74	=74	=74	=74	=74	=74	=74	=74	=74	=74
4r	.	4r	.	4.aa\	.	4r	.	4r	.	1a	pa-	4r	.	4r	4r
*	*	*	*	*	*	*	*	*	*ij	*	*	*	*	*	*
4c#\	6_ 3	4an/	.	.	.	4c#\	da	4e\	da	.	.	4ee\	da	4a/	4ee\
.	.	.	.	16bb\LL	.	.	.	.	.	.	.	.	.	.	.
.	.	.	.	16aa\JJ	.	.	.	.	.	.	.	.	.	.	.
4d\	_ 3	4a/	.	8gg\L	.	(4d\	pa-	(4d\	pa-	.	.	(4ff#\	pa-	4dd\	4ff#\
.	.	.	.	8ff#\	.	.	.	.	.	.	.	.	.	.	.
4e\	_ 3	4a/	.	8ee\	.	4e\)	.	4c#\)	.	.	.	4gg\)	.	4ee\	4gg\
.	.	.	.	8gg\J	.	.	.	.	.	.	.	.	.	.	.
!	!	!	!	!	!	!LO:LB:g=original	!	!	!	!	!	!	!	!	!
=75	=75	=75	=75	=75	=75	=75	=75	=75	=75	=75	=75	=75	=75	=75	=75
4d\	_ 3	4a/	.	4ff#\	.	4d\	-cem	4d\	-cem	4a\	-cem	4ff#\	-cem	4dd\	4ff#\
*	*	*	*	*	*	*	*	*	*Xij	*	*	*	*	*	*
4r	x	16aa\LL	.	16aa\LL	.	4r	.	4r	.	4r	.	4r	.	4r	4r
.	.	16gg\	.	16gg\	.	.	.	.	.	.	.	.	.	.	.
.	.	16ff#\	.	16ff#\	.	.	.	.	.	.	.	.	.	.	.
.	.	16ee\JJ	.	16ee\JJ	.	.	.	.	.	.	.	.	.	.	.
!	!	!	!	!	!	!	!	!	!	!	!	!LO:LB:g=original	!	!	!
4r	.	4dd\	.	4dd\	.	4r	.	4r	.	4r	.	4r	.	4r	4r
4F#\	6	4dd\	.	4dd\	.	4F#\	do-	4d\	do-	4a\	do-	4dd\	do-	4dd\	4ff#\
!LO:LB:g=original	!	!	!	!	!	!	!	!	!	!	!	!	!	!LO:LB:g=original	!LO:LB:g=original
=76	=76	=76	=76	=76	=76	=76	=76	=76	=76	=76	=76	=76	=76	=76	=76
4G\	6_	4ee\	.	4ee\	.	4G\	-na	4B\	-na	4g\	-na	4ee\	-na	4ee\	4gg\
4r	.	16bb\LL	.	16bb\LL	.	4r	.	4r	.	4r	.	4r	.	4r	4r
.	.	16aa\	.	16aa\	.	.	.	.	.	.	.	.	.	.	.
.	.	16gg\	.	16gg\	.	.	.	.	.	.	.	.	.	.	.
.	.	16ff#\JJ	.	16ff#\JJ	.	.	.	.	.	.	.	.	.	.	.
4r	.	4ee\	.	4ee\	.	4r	.	4r	.	4r	.	4r	.	4r	4r
4G\	.	4ee\	.	4ee\	.	(4G\	no-	(4B\	no-	(4g\	no-	(4ee\	no-	4ee\	4gg\
!	!	!LO:LB:g=original	!	!LO:LB:g=original	!	!	!	!	!	!	!	!	!	!	!
=77	=77	=77	=77	=77	=77	=77	=77	=77	=77	=77	=77	=77	=77	=77	=77
4F#\	6	4dd\	.	8ff#\L	.	4F#\)	.	4A\)	.	4f#\)	.	4dd\)	.	4ff#\	4aa\
.	.	.	.	8dd\	.	.	.	.	.	.	.	.	.	.	.
4G\	6	8b/L	.	8gg\	.	4G\	-bis	4B\	-bis	4g\	-bis	4ee\	-bis	4ee\	4gg\
.	.	8g/J	.	8ee\J	.	.	.	.	.	.	.	.	.	.	.
4A\	4	4f#/	.	8ee\L	.	4A\	pa-	2A\	pa-	4f#\	pa-	4dd\	pa-	4dd\	4ff#\
.	.	.	.	8dd\	.	.	.	.	.	.	.	.	.	.	.
4AA/	3	4e/	.	8dd\	.	4AA/	.	.	.	4e\	.	4cc#\	.	4a/	4ee\
.	.	.	.	8cc#\J	.	.	.	.	.	.	.	.	.	.	.
!	!	!	!	!	!	!	!	!LO:LB:g=original	!	!	!	!	!	!	!
=78	=78	=78	=78	=78	=78	=78	=78	=78	=78	=78	=78	=78	=78	=78	=78
4D\	.	4f#/	.	4dd\	.	2D\	-cem	2A\	-cem	2f#\	-cem	2dd\	-cem	4f#/	4dd\
4d\	.	4f#/	.	4ff#\	.	.	.	.	.	.	.	.	.	4f#/	4dd\
4D\	.	4f#/	.	4dd\	.	2r	.	2r	.	2r	.	2r	.	4f#/	4dd\
!LO:TX:a:i:t=pedale&colon;	!	!	!	!	!	!	!	!	!	!	!	!	!	!	!
4r	.	4r	.	4r	.	.	.	.	.	.	.	.	.	4r	4r
=79	=79	=79	=79	=79	=79	=79	=79	=79	=79	=79	=79	=79	=79	=79	=79
2A\	.	0r	.	0r	.	2A\	Do-	2E/	Do-	2a\	Do-	2cc#\	Do-	00r	00r
2G\	.	.	.	.	.	2G\	-na	2E/	-na	2a\	-na	2cc#\	-na	.	.
!	!	!	!	!	!	!	!	!	!	!LO:LB:g=original	!	!	!	!	!
=80	=80	=80	=80	=80	=80	=80	=80	=80	=80	=80	=80	=80	=80	=80	=80
2F#\	.	.	.	.	.	2F#\	no-	2A\	no-	2a\	no-	2cc#\	no-	.	.
2E\	.	.	.	.	.	2E\	-bis	2A\	-bis	2a\	-bis	2cc#\	-bis	.	.
!	!	!	!	!	!	!LO:LB:g=original	!	!	!	!	!	!LO:LB:g=original	!	!	!
=81	=81	=81	=81	=81	=81	=81	=81	=81	=81	=81	=81	=81	=81	=81	=81
!	!	!	!LO:DY:a	!	!LO:DY:a	!	!	!	!	!	!	!	!	!	!
1D#X	.	4r	p	4r	p	1D#X	pa-	1F#	pa-	1a	pa-	1b	pa-	.	.
.	.	4d#X/	.	4f#/	.	.	.	.	.	.	.	.	.	.	.
.	.	4e/	.	4g/	.	.	.	.	.	.	.	.	.	.	.
.	.	4f#/	.	4a/	.	.	.	.	.	.	.	.	.	.	.
=82	=82	=82	=82	=82	=82	=82	=82	=82	=82	=82	=82	=82	=82	=82	=82
1E	.	4g/	.	4b\	.	1E	-cem	1G	-cem	1g	-cem	1b	-cem	.	.
.	.	4a/	.	4cc#\	.	.	.	.	.	.	.	.	.	.	.
.	.	4b/	.	4dd#X\	.	.	.	.	.	.	.	.	.	.	.
.	.	4g/	.	4ee\	.	.	.	.	.	.	.	.	.	.	.
=83	=83	=83	=83	=83	=83	=83	=83	=83	=83	=83	=83	=83	=83	=83	=83
2G\	.	0r	.	0r	.	2G\	Do-	2D/	Do-	2g\	Do-	2b\	do-	00r	00r
2F#\	.	.	.	.	.	2F#\	-na	2D/	-na	2g\	-na	2b\	-na	.	.
!LO:LB:g=original	!	!	!	!	!	!	!	!	!	!	!	!	!	!	!
=84	=84	=84	=84	=84	=84	=84	=84	=84	=84	=84	=84	=84	=84	=84	=84
2E\	.	.	.	.	.	2E\	no-	2G/	no-	2g\	no-	2b\	no-	.	.
2Dn\	.	.	.	.	.	2Dn\	-bis	2G/	-bis	2g\	-bis	2b\	-bis	.	.
!	!	!	!	!	!	!	!	!LO:LB:g=original	!	!	!	!	!	!	!
=85	=85	=85	=85	=85	=85	=85	=85	=85	=85	=85	=85	=85	=85	=85	=85
1C#	.	4r	.	4r	.	1C#	pa-	1E	pa-	1g	pa-	1a	pa-	.	.
.	.	4c#/	.	4e/	.	.	.	.	.	.	.	.	.	.	.
.	.	4dn/	.	4f#/	.	.	.	.	.	.	.	.	.	.	.
.	.	4e/	.	4g/	.	.	.	.	.	.	.	.	.	.	.
!	!	!LO:LB:g=original	!	!LO:LB:g=original	!	!	!	!	!	!	!	!	!	!	!
=86	=86	=86	=86	=86	=86	=86	=86	=86	=86	=86	=86	=86	=86	=86	=86
1D	.	4f#/	.	4a/	.	1D	-cem	1F#	-cem	1f#	-cem	1a	-cem	.	.
.	.	4g/	.	4b\	.	.	.	.	.	.	.	.	.	.	.
.	.	4a/	.	4cc#\	.	.	.	.	.	.	.	.	.	.	.
.	.	4f#/	.	4ddn\	.	.	.	.	.	.	.	.	.	.	.
!	!	!	!	!	!	!	!	!	!	!LO:LB:g=original	!	!	!	!	!
=87	=87	=87	=87	=87	=87	=87	=87	=87	=87	=87	=87	=87	=87	=87	=87
1G	.	4r	.	4r	.	1G	Do-	1e	do-	1a	Do-	1cc#	do-	00r	00r
.	.	4cc#\	.	4cc#\	.	.	.	.	.	.	.	.	.	.	.
.	.	4a\	.	4a\	.	.	.	.	.	.	.	.	.	.	.
.	.	4cc#\	.	4cc#\	.	.	.	.	.	.	.	.	.	.	.
=88	=88	=88	=88	=88	=88	=88	=88	=88	=88	=88	=88	=88	=88	=88	=88
2F#\	.	4dd\	.	4dd\	.	2F#\	-na	2d\	-na	2a\	-na	2dd\	-na	.	.
.	.	4dd\	.	4dd\	.	.	.	.	.	.	.	.	.	.	.
2r	.	4ff#\	.	4ff#\	.	2r	.	2r	.	2r	.	2r	.	.	.
.	.	4aa\	.	4aa\	.	.	.	.	.	.	.	.	.	.	.
!	!	!	!	!	!	!LO:LB:g=original	!	!	!	!	!	!LO:LB:g=original	!	!	!
=89	=89	=89	=89	=89	=89	=89	=89	=89	=89	=89	=89	=89	=89	=89	=89
1C#	.	4r	.	4r	.	1C#	no-	1e	no-	1g	no-	1a	no-	.	.
.	.	4gg\	.	4gg\	.	.	.	.	.	.	.	.	.	.	.
.	.	4ee\	.	4ee\	.	.	.	.	.	.	.	.	.	.	.
.	.	4gg\	.	4gg\	.	.	.	.	.	.	.	.	.	.	.
=90	=90	=90	=90	=90	=90	=90	=90	=90	=90	=90	=90	=90	=90	=90	=90
2D\	.	4ff#\	.	4ff#\	.	2D\	-bis	2d\	-bis	2f#\	-bis	2a\	-bis	.	.
.	.	4aa\	.	4aa\	.	.	.	.	.	.	.	.	.	.	.
2r	.	4ff#\	.	4ff#\	.	2r	.	2r	.	2r	.	2r	.	.	.
.	.	4dd\	.	4dd\	.	.	.	.	.	.	.	.	.	.	.
=91	=91	=91	=91	=91	=91	=91	=91	=91	=91	=91	=91	=91	=91	=91	=91
*	*	*	*	*	*	*	*	*	*ij	*	*ij	*	*	*	*
1G	.	4r	.	4r	.	1G	Do-	1e	do-	1a	Do-	1cc#	Do-	00r	00r
.	.	4cc#\	.	4cc#\	.	.	.	.	.	.	.	.	.	.	.
.	.	4a\	.	4a\	.	.	.	.	.	.	.	.	.	.	.
.	.	4cc#\	.	4cc#\	.	.	.	.	.	.	.	.	.	.	.
!	!	!LO:LB:g=original	!	!	!	!	!	!	!	!	!	!	!	!	!
=92	=92	=92	=92	=92	=92	=92	=92	=92	=92	=92	=92	=92	=92	=92	=92
1F#	.	4r	.	4r	.	1F#	-na	1d	-na	1a	-na	1dd	-na	.	.
.	.	4dd\	.	4dd\	.	.	.	.	.	.	.	.	.	.	.
.	.	4ff#\	.	4ff#\	.	.	.	.	.	.	.	.	.	.	.
.	.	4dd\	.	4dd\	.	.	.	.	.	.	.	.	.	.	.
!	!	!	!	!LO:LB:g=original	!	!	!	!	!	!	!	!	!	!	!
=93	=93	=93	=93	=93	=93	=93	=93	=93	=93	=93	=93	=93	=93	=93	=93
1G	.	4r	.	4r	.	2G\	no-	2B\	no-	2g\	no-	2ee\	no-	.	.
.	.	4ee\	.	4ee\	.	.	.	.	.	.	.	.	.	.	.
.	.	4gg\	.	4gg\	.	2G\	-bis	2B\	-bis	2g\	-bis	2ee\	-bis	.	.
*	*	*	*	*	*	*	*	*	*Xij	*	*Xij	*	*	*	*
.	.	4ee\	.	4ee\	.	.	.	.	.	.	.	.	.	.	.
!	!	!	!	!	!	!	!	!LO:LB:g=original	!	!	!	!	!	!	!
=94	=94	=94	=94	=94	=94	=94	=94	=94	=94	=94	=94	=94	=94	=94	=94
2A\	.	4dd\	.	4dd\	.	2A\	pa-	1A	pa-	2f#\	pa-	2dd\	pa-	.	.
.	.	4ff#\	.	4ff#\	.	.	.	.	.	.	.	.	.	.	.
2AA/	.	4cc#\	.	4cc#\	.	2AA/	.	.	.	2e\	.	2cc#\	.	.	.
.	.	4ee\	.	4ee\	.	.	.	.	.	.	.	.	.	.	.
!LO:LB:g=original	!	!	!	!	!	!	!	!	!	!LO:LB:g=original	!	!	!	!	!
=95	=95	=95	=95	=95	=95	=95	=95	=95	=95	=95	=95	=95	=95	=95	=95
!	!	!	!LO:DY:a:t=f&colon;	!	!LO:DY:a	!	!	!	!	!	!	!	!	!	!
4D\	.	4dd\	f	4dd\	f	4D\	-cem	4A\	-cem	4f#\	-cem	4dd\	-cem	4dd\	4ff#\
!LO:TX:a:i:t=Organo	!	!	!	!	!	!	!	!	!	!	!	!	!	!	!
4r	.	8ff#\L	.	8ff#\L	.	4r	.	4r	.	8f#\L	da	4r	.	4r	4r
.	.	8aa\J	.	8aa\J	.	.	.	.	.	8a\J	.	.	.	.	.
2r	.	8aa\L	.	8aa\L	.	2r	.	2r	.	8a\L	pa-	2r	.	2r	2r
.	.	8gg\	.	8gg\	.	.	.	.	.	8g\	.	.	.	.	.
.	.	8ee\	.	8ee\	.	.	.	.	.	8e\	.	.	.	.	.
.	.	8gg\J	.	8gg\J	.	.	.	.	.	8g\J	.	.	.	.	.
!	!	!	!	!	!	!LO:LB:g=original	!	!	!	!	!	!LO:LB:g=original	!	!	!
=96	=96	=96	=96	=96	=96	=96	=96	=96	=96	=96	=96	=96	=96	=96	=96
4r	.	4ff#\	.	4ff#\	.	4r	.	4r	.	4f#\	-cem	4r	.	4r	4r
4d\	5_ 3	4ddd\	.	4ddd\	.	4d\	da	4d\	da	4dd\	da	4ff#\	da	4dd\	4ff#\
4c#\	_ 3	[<2aa\	.	[<2aa\	.	4c#\	pa-	2c#\	pa-	2a\	pa-	4ee\	pa-	2a/	2ee\
4e\	_ 3	.	.	.	.	4e\	.	.	.	.	.	4gg\	.	.	.
!	!	!	!	!	!	!	!	!	!	!	!	!	!	!LO:LB:g=original	!LO:LB:g=original
=97	=97	=97	=97	=97	=97	=97	=97	=97	=97	=97	=97	=97	=97	=97	=97
4d\	_ 3	4aa\]	.	4aa\]	.	4d\	-cem	4d\	-cem	4a\	-cem	4ff#\	-cem	4f#/	4dd\
4r	x	8ff#\L	.	8ff#\L	.	4r	.	4r	.	8f#\L	da	4r	.	4r	4r
.	.	8aa\J	.	8aa\J	.	.	.	.	.	8a\J	.	.	.	.	.
!	!	!LO:LB:g=original	!	!	!	!	!	!	!	!	!	!	!	!	!
2r	.	8aa\L	.	8aa\L	.	2r	.	2r	.	8a\L	pa-	2r	.	2r	2r
.	.	8gg\	.	8gg\	.	.	.	.	.	8g\	.	.	.	.	.
.	.	8ee\	.	8ee\	.	.	.	.	.	8e\	.	.	.	.	.
.	.	8gg\J	.	8gg\J	.	.	.	.	.	8g\J	.	.	.	.	.
=98	=98	=98	=98	=98	=98	=98	=98	=98	=98	=98	=98	=98	=98	=98	=98
4r	.	4ff#\	.	4ff#\	.	4r	.	4r	.	4f#\	-cem	4r	.	4r	4r
*	*	*	*	*	*	*	*	*	*ij	*	*	*	*	*	*
4d\	5_ 3	4ddd\	.	4ddd\	.	4d\	da	4d\	da	4dd\	da	4ff#\	da	4dd\	4ff#\
4c#\	_ 3	4aa\	.	[<2aa\	.	(4c#\	pa-	2c#\	pa-	2a\	pa-	4ee\	pa-	2a/	2ee\
4e\	_ 3	4gg\	.	.	.	4e\)	.	.	.	.	.	4gg\	.	.	.
!	!	!	!	!	!	!	!	!	!	!LO:LB:g=original	!	!	!	!	!
=99	=99	=99	=99	=99	=99	=99	=99	=99	=99	=99	=99	=99	=99	=99	=99
4d\	_ 3	2ff#\	.	2aa\]	.	4d\	.	2d\	-cem	2a\	.	2ff#\	.	4f#/	4dd\
*	*	*	*	*	*	*	*	*	*Xij	*	*	*	*	*	*
8e\L	x	.	.	.	.	8e\L	.	.	.	.	.	.	.	4r	4r
8d\J	.	.	.	.	.	8d\J	.	.	.	.	.	.	.	.	.
8c#\L	5_ 3_	[<2ee\	.	[<2gg\	.	8c#\L	.	2c#\	da	[<2g\	.	2ee\	.	2r	2r
8B\	.	.	.	.	.	8B\	.	.	.	.	.	.	.	.	.
8A\	.	.	.	.	.	8A\	.	.	.	.	.	.	.	.	.
8G\J	.	.	.	.	.	8G\J	.	.	.	.	.	.	.	.	.
!	!	!	!	!LO:LB:g=original	!	!	!	!LO:LB:g=original	!	!	!	!	!	!	!
=100	=100	=100	=100	=100	=100	=100	=100	=100	=100	=100	=100	=100	=100	=100	=100
8F#\L	7_ 2_	2ee\]	.	2gg\]	.	8F#\L	.	1B	pa-	2g\]	.	2ee\	.	0r	0r
8A\	.	.	.	.	.	8A\	.	.	.	.	.	.	.	.	.
8d\	.	.	.	.	.	8d\	.	.	.	.	.	.	.	.	.
8c#\J	.	.	.	.	.	8c#\J	.	.	.	.	.	.	.	.	.
!	!	!	!	!	!	!LO:LB:g=original	!	!	!	!	!	!	!	!	!
8B\L	5_ 3_	[<2dd\	.	[<2ff#\	.	8B\L	.	.	.	[<2f#\	.	2dd\	.	.	.
8A\	.	.	.	.	.	8A\	.	.	.	.	.	.	.	.	.
8G\	.	.	.	.	.	8G\	.	.	.	.	.	.	.	.	.
8F#\J	.	.	.	.	.	8F#\J	.	.	.	.	.	.	.	.	.
!LO:LB:g=original	!	!	!	!	!	!	!	!	!	!	!	!LO:LB:g=original	!	!	!
=101	=101	=101	=101	=101	=101	=101	=101	=101	=101	=101	=101	=101	=101	=101	=101
8E\L	7_ 2_	2dd\]	.	2ff#\]	.	8E\L	.	1A	-pa-	2f#\]	.	2dd\	.	.	.
8G\	.	.	.	.	.	8G\	.	.	.	.	.	.	.	.	.
8c#\	.	.	.	.	.	8c#\	.	.	.	.	.	.	.	.	.
8B\J	.	.	.	.	.	8B\J	.	.	.	.	.	.	.	.	.
8A\L	5_ 3_	2cc#\	.	2ee\	.	8A\L	.	.	.	2e\	.	2cc#\	.	.	.
8G\	.	.	.	.	.	8G\	.	.	.	.	.	.	.	.	.
8F#\	.	.	.	.	.	8F#\	.	.	.	.	.	.	.	.	.
8E\J	.	.	.	.	.	8E\J	.	.	.	.	.	.	.	.	.
=102	=102	=102	=102	=102	=102	=102	=102	=102	=102	=102	=102	=102	=102	=102	=102
4D\	x	4dd\	.	4ff#\	.	4D\	.	4A\	.	4f#\	-cem	2.dd\	.	4r	4r
4B\	.	4f#/	.	2dd\	.	4B\	.	2B\	.	4f#\	da	.	.	4dd\	4ff#\
4G\	6 5	2e/	.	.	.	4G\	.	.	.	2e\	pa-	.	.	4dd\	2ee\
4A\	.	.	.	4cc#\	.	4A\	.	4A\	.	.	.	4cc#\	.	4a/	.
!	!	!LO:LB:g=original	!	!	!	!	!	!	!	!	!	!	!	!	!
=103	=103	=103	=103	=103	=103	=103	=103	=103	=103	=103	=103	=103	=103	=103	=103
2D\	.	2f#/	.	2dd\	.	2D\	-cem	2A\	-cem	2f#\	-cem	2dd\	-cem	2f#/	2dd\
*	*	*	*	*	*	*	*	*	*ij	*	*ij	*	*	*	*
2A\	.	2cc# 2e/	.	2ee\	.	2A\	pa-	2c#\	pa-	2a\	pa-	2ee\	pa-	2a/	2ee\
=104	=104	=104	=104	=104	=104	=104	=104	=104	=104	=104	=104	=104	=104	=104	=104
2D\	.	2dd 2f#/	.	2ff# 2a 2d\	.	2d\	-cem	2d\	-cem	2a\	-cem	2ff#\	-cem	2dd\	2ff#\
*	*	*	*	*	*	*	*ij	*	*	*	*Xij	*	*ij	*	*
2AA/	.	2cc# 2e/	.	2ee 2a\	.	2A\	pa-	2c#\	pa-	2g\	pa-	2ee\	pa-	2a/	2ee\
!	!	!	!	!	!	!	!	!	!	!LO:LB:g=original	!	!	!	!LO:LB:g=original	!LO:LB:g=original
=105	=105	=105	=105	=105	=105	=105	=105	=105	=105	=105	=105	=105	=105	=105	=105
2DD/	.	2dd 2f#/	.	2ff# 2a 2d\	.	2D\	-cem	2A\	-cem	2f#\	-cem	2dd\	-cem	2f#/	2dd\
*	*	*	*	*	*	*	*Xij	*	*Xij	*	*	*	*Xij	*	*
2r	.	2r	.	2r	.	2r	.	2r	.	2r	.	2r	.	2r	2r
==	==	==	==	==	==	==	==	==	==	==	==	==	==	==	==
*-	*-	*-	*-	*-	*-	*-	*-	*-	*-	*-	*-	*-	*-	*-	*-
!!!system-decoration: [(g1)][(g2)][(g3)]<s9>
!!!RDF**kern: > = above
!!!RDF**kern: < = below
!!!RDF**kern: | = vertical stroke
!!!RDF**dynam: f = "for:", fontstyle="bold-italic"
!!!RDF**dynam: p = "p:", fontstyle="bold-italic"
!!!ENC: Marcin Jachim
!!!END: 2020-07-07
!!!ENC: Andrzej Kubiczek
!!!END: 2021-11-21
